src/lib/packages/icons/src/assets/line/sd-card.svg

<svg width="24" height="24" viewBox="0 0 24 24" fill="none" xmlns="http://www.w3.org/2000/svg">
<path d="M15.5 21.75H8.5C6.082 21.75 4.75 20.418 4.75 18V7.62109C4.75 7.02909 4.98994 6.44903 5.40894 6.03003L8.53003 2.90894C8.94903 2.48994 9.52909 2.25 10.1211 2.25H15.5C17.918 2.25 19.25 3.582 19.25 6V18C19.25 20.418 17.918 21.75 15.5 21.75ZM10.1211 3.75C9.92409 3.75 9.73006 3.82997 9.59106 3.96997L6.46997 7.09106C6.32997 7.23106 6.25 7.42409 6.25 7.62109V18C6.25 19.577 6.923 20.25 8.5 20.25H15.5C17.077 20.25 17.75 19.577 17.75 18V6C17.75 4.423 17.077 3.75 15.5 3.75H10.1211ZM16.25 9.5V7C16.25 6.586 15.914 6.25 15.5 6.25C15.086 6.25 14.75 6.586 14.75 7V9.5C14.75 9.914 15.086 10.25 15.5 10.25C15.914 10.25 16.25 9.914 16.25 9.5ZM13.25 9.5V7C13.25 6.586 12.914 6.25 12.5 6.25C12.086 6.25 11.75 6.586 11.75 7V9.5C11.75 9.914 12.086 10.25 12.5 10.25C12.914 10.25 13.25 9.914 13.25 9.5ZM10.25 9.5V7C10.25 6.586 9.914 6.25 9.5 6.25C9.086 6.25 8.75 6.586 8.75 7V9.5C8.75 9.914 9.086 10.25 9.5 10.25C9.914 10.25 10.25 9.914 10.25 9.5Z" fill="currentColor"/>
</svg>

<svg xmlns="http://www.w3.org/2000/svg" width="24" height="24" fill="none"><path fill="currentColor" d="M15.5 21.75h-7c-2.418 0-3.75-1.332-3.75-3.75V7.621c0-.592.24-1.172.659-1.591L8.53 2.909c.419-.42 1-.659 1.591-.659H15.5c2.418 0 3.75 1.332 3.75 3.75v12c0 2.418-1.332 3.75-3.75 3.75Zm-5.379-18a.753.753 0 0 0-.53.22L6.47 7.091a.755.755 0 0 0-.22.53V18c0 1.577.673 2.25 2.25 2.25h7c1.577 0 2.25-.673 2.25-2.25V6c0-1.577-.673-2.25-2.25-2.25h-5.379ZM16.25 9.5V7a.75.75 0 0 0-1.5 0v2.5a.75.75 0 0 0 1.5 0Zm-3 0V7a.75.75 0 0 0-1.5 0v2.5a.75.75 0 0 0 1.5 0Zm-3 0V7a.75.75 0 0 0-1.5 0v2.5a.75.75 0 0 0 1.5 0Z"/></svg>
